X:2
T:The Wishing Well
R:jig
C:Tommy Peoples
D:Tommy Peoples's - Waiting for a Call, Shanachie 2003
Z:Paul Stewart Cranford (P.S.C.), <http://www.cranfordpub.com>
L:1/8
Q:288
M:6/8
K:D
DFA d2 e|fdB BAF|dBB BAF|B/c/dB BAF|
DFA d2 e|fdB BAF|BAF dBA|fac d2 z:|
|:Adf a3|baf afd|f2 g afd|Beg bge|
Adf ~a3|baf afd|b2 a Tafd|Ace d2 z:|
|:fdd ceA|d2 g fdB|Tc2 A ceA|~a3 bag|
fdd ecc|dge fdA|FAD GBD|Aec d2 z:|
